Numix/128x128/categories/applications-java.svg

<?xml version="1.0" encoding="UTF-8" standalone="no"?>
<svg
   xmlns:dc="http://purl.org/dc/elements/1.1/"
   xmlns:cc="http://creativecommons.org/ns#"
   xmlns:rdf="http://www.w3.org/1999/02/22-rdf-syntax-ns#"
   xmlns:svg="http://www.w3.org/2000/svg"
   xmlns="http://www.w3.org/2000/svg"
   xmlns:sodipodi="http://sodipodi.sourceforge.net/DTD/sodipodi-0.dtd"
   xmlns:inkscape="http://www.inkscape.org/namespaces/inkscape"
   width="128"
   height="128"
   viewBox="0 0 128 128"
   id="svg2"
   version="1.1"
   inkscape:version="0.91 r"
   sodipodi:docname="applications-java.svg">
  <metadata
     id="metadata26">
    <rdf:RDF>
      <cc:Work
         rdf:about="">
        <dc:format>image/svg+xml</dc:format>
        <dc:type
           rdf:resource="http://purl.org/dc/dcmitype/StillImage" />
      </cc:Work>
    </rdf:RDF>
  </metadata>
  <defs
     id="defs24" />
  <sodipodi:namedview
     pagecolor="#ffffff"
     bordercolor="#666666"
     borderopacity="1"
     objecttolerance="10"
     gridtolerance="10"
     guidetolerance="10"
     inkscape:pageopacity="0"
     inkscape:pageshadow="2"
     inkscape:window-width="1920"
     inkscape:window-height="1056"
     id="namedview22"
     showgrid="false"
     inkscape:zoom="1.84375"
     inkscape:cx="64"
     inkscape:cy="64"
     inkscape:window-x="0"
     inkscape:window-y="24"
     inkscape:window-maximized="1"
     inkscape:current-layer="svg2" />
  <g
     style="fill:#e660c1;fill-rule:evenodd"
     id="g4"
     transform="matrix(1.041197,0,0,1.041197,-1.9448127,-1.9429731)">
    <path
       d="m 50.351562,90.378906 c 0,0 -3.789062,2.199219 2.683594,2.953125 7.851563,0.886719 11.847656,0.757813 20.492188,-0.871093 0,0 2.28125,1.417968 5.445312,2.65625 -19.375,8.308592 -43.84375,-0.480469 -28.621094,-4.738282"
       id="path6"
       inkscape:connector-curvature="0" />
    <path
       d="m 47.980469,79.542969 c 0,0 -4.242188,3.152343 2.242187,3.816406 8.371094,0.859375 14.984375,0.9375 26.429688,-1.261719 0,0 1.589844,1.601563 4.078125,2.472656 -23.425781,6.847657 -49.519531,0.546876 -32.75,-5.027343"
       id="path8"
       inkscape:connector-curvature="0" />
    <path
       d="m 67.929688,61.171875 c 4.777343,5.496094 -1.25,10.441406 -1.25,10.441406 0,0 12.121093,-6.261719 6.550781,-14.085937 -5.195313,-7.320313 -9.179688,-10.9375 12.40625,-23.464844 0,0 -33.878907,8.464844 -17.707031,27.109375"
       id="path10"
       inkscape:connector-curvature="0" />
    <path
       d="m 93.554688,98.398438 c 0,0 2.800781,2.304692 -3.085938,4.089842 -11.171875,3.38281 -46.535156,4.41406 -56.355469,0.12891 -3.527343,-1.53516 3.085938,-3.660159 5.171875,-4.113284 2.171875,-0.46875 3.410156,-0.378906 3.410156,-0.378906 -3.917968,-2.773438 -25.378906,5.42969 -10.898437,7.77344 39.503906,6.40625 72.003905,-2.87891 61.757813,-7.500002"
       id="path12"
       inkscape:connector-curvature="0" />
    <path
       d="m 52.160156,68.320312 c 0,0 -17.980468,4.269532 -6.367187,5.832032 4.910156,0.652344 14.6875,0.507812 23.789062,-0.257813 7.449219,-0.625 14.921875,-1.96875 14.921875,-1.96875 0,0 -2.628906,1.132813 -4.53125,2.421875 -18.253906,4.804688 -53.539062,2.566406 -43.382812,-2.34375 8.59375,-4.152344 15.570312,-3.683594 15.570312,-3.683594"
       id="path14"
       inkscape:connector-curvature="0" />
    <path
       d="m 84.425781,86.355469 c 18.570309,-9.648438 9.988281,-18.921875 4,-17.671875 -1.472656,0.3125 -2.125,0.574218 -2.125,0.574218 0,0 0.535157,-0.859374 1.578125,-1.222656 11.859375,-4.167968 20.976564,12.289063 -3.816406,18.8125 0,0 0.285156,-0.257812 0.363281,-0.492187"
       id="path16"
       inkscape:connector-curvature="0" />
    <path
       d="m 73.230469,13.855469 c 0,0 10.285156,10.285156 -9.753907,26.105469 -16.054687,12.683593 -3.660156,19.921874 0,28.175781 C 54.101562,59.6875 47.214844,52.238281 51.835938,45.300781 58.605469,35.128906 77.382812,30.195312 73.230469,13.855469"
       id="path18"
       inkscape:connector-curvature="0" />
    <path
       d="m 53.984375,112.5 c 17.824219,1.14453 45.195313,-0.63672 45.847656,-9.0625 0,0 -1.25,3.19141 -14.742187,5.73047 -15.207032,2.86328 -33.96875,2.53906 -45.089844,0.70312 0,0 2.277344,1.875 13.984375,2.62891"
       id="path20"
       inkscape:connector-curvature="0" />
  </g>
</svg>

<svg width="128" xmlns="http://www.w3.org/2000/svg" height="128" viewBox="0 0 128 128" xmlns:xlink="http://www.w3.org/1999/xlink">
<g style="fill:#e660c1;fill-rule:evenodd">
<path d="M 50.351562 90.378906 C 50.351562 90.378906 46.5625 92.578125 53.035156 93.332031 C 60.886719 94.21875 64.882812 94.089844 73.527344 92.460938 C 73.527344 92.460938 75.808594 93.878906 78.972656 95.117188 C 59.597656 103.425781 35.128906 94.636719 50.351562 90.378906 "/>
<path d="M 47.980469 79.542969 C 47.980469 79.542969 43.738281 82.695312 50.222656 83.359375 C 58.59375 84.21875 65.207031 84.296875 76.652344 82.097656 C 76.652344 82.097656 78.242188 83.699219 80.730469 84.570312 C 57.304688 91.417969 31.210938 85.117188 47.980469 79.542969 "/>
<path d="M 67.929688 61.171875 C 72.707031 66.667969 66.679688 71.613281 66.679688 71.613281 C 66.679688 71.613281 78.800781 65.351562 73.230469 57.527344 C 68.035156 50.207031 64.050781 46.589844 85.636719 34.0625 C 85.636719 34.0625 51.757812 42.527344 67.929688 61.171875 "/>
<path d="M 93.554688 98.398438 C 93.554688 98.398438 96.355469 100.703125 90.46875 102.488281 C 79.296875 105.871094 43.933594 106.902344 34.113281 102.617188 C 30.585938 101.082031 37.199219 98.957031 39.285156 98.503906 C 41.457031 98.035156 42.695312 98.125 42.695312 98.125 C 38.777344 95.351562 17.316406 103.554688 31.796875 105.898438 C 71.300781 112.304688 103.800781 103.019531 93.554688 98.398438 "/>
<path d="M 52.160156 68.320312 C 52.160156 68.320312 34.179688 72.589844 45.792969 74.152344 C 50.703125 74.804688 60.480469 74.660156 69.582031 73.894531 C 77.03125 73.269531 84.503906 71.925781 84.503906 71.925781 C 84.503906 71.925781 81.875 73.058594 79.972656 74.347656 C 61.71875 79.152344 26.433594 76.914062 36.589844 72.003906 C 45.183594 67.851562 52.160156 68.320312 52.160156 68.320312 "/>
<path d="M 84.425781 86.355469 C 102.996094 76.707031 94.414062 67.433594 88.425781 68.683594 C 86.953125 68.996094 86.300781 69.257812 86.300781 69.257812 C 86.300781 69.257812 86.835938 68.398438 87.878906 68.035156 C 99.738281 63.867188 108.855469 80.324219 84.0625 86.847656 C 84.0625 86.847656 84.347656 86.589844 84.425781 86.355469 "/>
<path d="M 73.230469 13.855469 C 73.230469 13.855469 83.515625 24.140625 63.476562 39.960938 C 47.421875 52.644531 59.816406 59.882812 63.476562 68.136719 C 54.101562 59.6875 47.214844 52.238281 51.835938 45.300781 C 58.605469 35.128906 77.382812 30.195312 73.230469 13.855469 "/>
<path d="M 53.984375 112.5 C 71.808594 113.644531 99.179688 111.863281 99.832031 103.4375 C 99.832031 103.4375 98.582031 106.628906 85.089844 109.167969 C 69.882812 112.03125 51.121094 111.707031 40 109.871094 C 40 109.871094 42.277344 111.746094 53.984375 112.5 "/>
</g>
</svg>
